addons/meshbuilder/mesh_builder_torus/icon.svg

<svg height="16" viewBox="0 0 16 16" width="16" xmlns="http://www.w3.org/2000/svg"><path d="m8 3c-1.8145 0-3.4691.41721-4.7461 1.1621-1.277.745-2.2539 1.9082-2.2539 3.3379 0 1.4298.9769 2.5949 2.2539 3.3398s2.9316 1.1602 4.7461 1.1602c0-1.0907.90931-2 2-2 0-.080836.013744-.15778.023438-.23633-.61769.14673-1.3008.23633-2.0234.23633-1.4992 0-2.8437-.36687-3.7383-.88867-.89456-.5219-1.2617-1.108-1.2617-1.6113 0-.5032.36716-1.0876 1.2617-1.6094.89456-.5219 2.2391-.89062 3.7383-.89062s2.8437.36872 3.7383.89062c.89456.5218 1.2617 1.1062 1.2617 1.6094 0 .15978-.053679.32822-.13281.5h1.1328c.32481 0 .62893.088408.90234.23047.057552-.23582.097656-.47718.097656-.73047 0-1.4297-.9769-2.5929-2.2539-3.3379-1.277-.7449-2.9316-1.1621-4.7461-1.1621z" fill="#fc7f7f"/><path d="m12 9c-.55401 0-1 .44599-1 1v1h2v2h1c.55401 0 1-.44599 1-1v-2c0-.55401-.44599-1-1-1zm1 4h-2v-2h-1c-.55401 0-1 .44599-1 1v2c0 .55401.44599 1 1 1h2c.55401 0 1-.44599 1-1z" fill="#5fb2ff"/></svg>

<?xml version="1.0" encoding="UTF-8" standalone="no"?>
<svg
   height="80"
   viewBox="0 0 80 80"
   width="80"
   version="1.1"
   id="svg7740"
   sodipodi:docname="icon.svg"
   inkscape:version="1.2.1 (9c6d41e410, 2022-07-14, custom)"
   xmlns:inkscape="http://www.inkscape.org/namespaces/inkscape"
   xmlns:sodipodi="http://sodipodi.sourceforge.net/DTD/sodipodi-0.dtd"
   xmlns="http://www.w3.org/2000/svg"
   xmlns:svg="http://www.w3.org/2000/svg">
  <defs
     id="defs7744" />
  <sodipodi:namedview
     id="namedview7742"
     pagecolor="#ffffff"
     bordercolor="#666666"
     borderopacity="1.0"
     inkscape:showpageshadow="2"
     inkscape:pageopacity="0.0"
     inkscape:pagecheckerboard="0"
     inkscape:deskcolor="#d1d1d1"
     showgrid="false"
     inkscape:zoom="26"
     inkscape:cx="11.057692"
     inkscape:cy="11.596154"
     inkscape:window-width="1920"
     inkscape:window-height="1011"
     inkscape:window-x="0"
     inkscape:window-y="32"
     inkscape:window-maximized="1"
     inkscape:current-layer="svg7740" />
  <g
     id="g7865"
     transform="matrix(5,0,0,5,-7e-5,-5)">
    <path
       d="M 8,3 C 6.1855,3 4.5309,3.41721 3.2539,4.1621 1.9769,4.9071 1,6.0703 1,7.5 1,8.9298 1.9769,10.0949 3.2539,10.8398 4.5309,11.5847 6.1855,12 8,12 8,10.9093 8.90931,10 10,10 10,9.919164 10.013744,9.84222 10.023438,9.76367 9.405748,9.9104 8.722638,10 8.000038,10 c -1.4992,0 -2.8437,-0.36687 -3.7383,-0.88867 -0.89456,-0.5219 -1.2617,-1.108 -1.2617,-1.6113 0,-0.5032 0.36716,-1.0876 1.2617,-1.6094 0.89456,-0.5219 2.2391,-0.89062 3.7383,-0.89062 1.4992,0 2.8437,0.36872 3.7383,0.89062 0.89456,0.5218 1.2617,1.1062 1.2617,1.6094 0,0.15978 -0.05368,0.32822 -0.13281,0.5 h 1.1328 c 0.32481,0 0.62893,0.088408 0.90234,0.23047 0.05755,-0.23582 0.09766,-0.47718 0.09766,-0.73047 0,-1.4297 -0.9769,-2.5929 -2.2539,-3.3379 -1.277,-0.7449 -2.9316,-1.1621 -4.7461,-1.1621 z"
       fill="#fc7f7f"
       id="path7736" />
    <path
       d="m 12,9 c -0.55401,0 -1,0.44599 -1,1 v 1 h 2 v 2 h 1 c 0.55401,0 1,-0.44599 1,-1 V 10 C 15,9.44599 14.55401,9 14,9 Z m 1,4 h -2 v -2 h -1 c -0.55401,0 -1,0.44599 -1,1 v 2 c 0,0.55401 0.44599,1 1,1 h 2 c 0.55401,0 1,-0.44599 1,-1 z"
       fill="#5fb2ff"
       id="path7738" />
  </g>
</svg>
